icons/lines/blend-two.svg

<svg xmlns="http://www.w3.org/2000/svg" width="24" height="24" viewBox="0 0 24 24" fill="none" stroke="currentColor" stroke-width="2" stroke-linecap="round" stroke-linejoin="round" >
  <path d="M14.75 7.75C14.75 11.62 11.62 14.75 7.75 14.75C7.43 14.75 7.12 14.73 6.82 14.68C3.39 14.23 0.75 11.3 0.75 7.75C0.75 3.88 3.88 0.75 7.75 0.75C11.3 0.75 14.23 3.39 14.68 6.82C14.73 7.12 14.75 7.43 14.75 7.75Z"/>
  <path d="M20.7498 13.75C20.7498 17.62 17.6198 20.75 13.7498 20.75C10.1998 20.75 7.26982 18.11 6.81982 14.68C7.11982 14.73 7.42982 14.75 7.74982 14.75C11.6198 14.75 14.7498 11.62 14.7498 7.75001C14.7498 7.43001 14.7298 7.12001 14.6798 6.82001C18.1098 7.27001 20.7498 10.2 20.7498 13.75Z"/>
  <path d="M12.8999 12.87L14.2099 14.16"/>
  <path d="M15.75 10.75L14.75 9.75"/>
  <path d="M10.75 15.75L9.75 14.75"/>
  </svg>

<svg xmlns="http://www.w3.org/2000/svg" width="24" height="24" viewBox="0 0 24 24" fill="none" stroke="currentColor" stroke-width="2" stroke-linecap="round" stroke-linejoin="round">
  <path d="m10.75 15.75-1-1" />
  <path d="m12.9 12.87 1.31 1.29" />
  <path d="M14.75 7.75a7 7 0 0 1-7 7 6 6 0 0 1-.93-.07 7 7 0 1 1 7.86-7.86 6 6 0 0 1 .07.93" />
  <path d="m15.75 10.75-1-1" />
  <path d="M20.75 13.75a7 7 0 0 1-13.93.93 6 6 0 0 0 .93.07 7 7 0 0 0 7-7 6 6 0 0 0-.07-.93 7 7 0 0 1 6.07 6.93" />
</svg>
